!!!COM: Kostka, Payne, and Almén
!!!OPR: Tonal Harmony
!!!XEN: Modulation snippets
!!!OTL: 19-3. Beethoven, Piano Sonata, op. 53, I
!!!ENC: Laurent Feisthauer and Nestor Napoles Lopez
**kern	**kern	**text	**text
*staff2	*staff1	*staff2	*staff1
*clefF4	*clefF4	*	*
*k[]	*k[]	*	*
*C:	*C:	*	*
*M2/2	*M2/2	*	*
=1	=1	=1	=1
8CC	8r	C=>:I	.
8CC GG	8C E	I	.
8CC GG	8C E	I	.
8CC GG	8C E	I	.
8CC GG	8C E	I	.
8CC GG	8C E	I	.
8CC GG	8C E	I	.
8CC GG	8C E	I	.
=2	=2	=2	=2
8CC GG	8C E	I	.
8CC GG	8C E	I	.
8CC GG	8C E	I	.
8CC GG	8C E	I	.
8CC GG	8C E	I	.
8CC GG	8C E	I	.
8CC GG	8D F#	V2/V	.
8CC GG	8D F#	V2/V	.
=3	=3	=3	=3
8CC GG	4.D G	V6	.
8CC GG	.	V6	.
8CC GG	.	V6	.
8CC GG	16B	.	V6
.	16A	.	V6
8CC GG	8G	.	V6
8CC GG	8r	.	V6
8CC GG	4r	V6	.
8CC GG	.	V6	.
*	*clefG2	*	*
=4	=4	=4	=4
.	8ccc#q	.	.
8CC GG	[4ddd	V6	.
8CC GG	.	V6	.
8CC GG	16ddd]	.	V6
.	16ccc	.	V6
8CC GG	16bb	.	V6
.	16aa	.	V6
8CC GG	4gg	V6	.
8CC GG	.	V6	.
8CC GG	4r	V6	.
8CC GG	.	V6	.
*	*clefF4	*	*
=5	=5	=5	=5
8BBB- FF	8BB- D	B-=>:I	.
8BBB- FF	8BB- D	I	.
8BBB- FF	8BB- D	I	.
8BBB- FF	8BB- D	I	.
8BBB- FF	8BB- D	I	.
8BBB- FF	8BB- D	I	.
8BBB- FF	8BB- D	I	.
8BBB- FF	8BB- D	I	.
=6	=6	=6	=6
8BBB- FF	8BB- D	I	.
8BBB- FF	8BB- D	I	.
8BBB- FF	8BB- D	I	.
8BBB- FF	8BB- D	I	.
8BBB- FF	8BB- D	I	.
8BBB- FF	8BB- D	I	.
8BBB- GG	8C E	V2/V	.
8BBB- GG	8C E	V2/V	.
=7	=7	=7	=7
8AAA FF	4.C F	V6	.
8AAA FF	.	V6	.
8AAA FF	.	V6	.
8AAA FF	16A	.	V6
.	16G	.	V6
8AAA FF	8F	.	V6
8AAA FF	8r	.	V6
8AAA FF	4r	V6	.
8AAA FF	.	V6	.
*	*clefG2	*	*
==	==	==	==
!!!filter: autobeam
*-	*-	*-	*-
